Numix/16/status/indicator-keyboard-Sr.svg

<?xml version="1.0" encoding="UTF-8" standalone="no"?>
<svg
   xmlns:dc="http://purl.org/dc/elements/1.1/"
   xmlns:cc="http://creativecommons.org/ns#"
   xmlns:rdf="http://www.w3.org/1999/02/22-rdf-syntax-ns#"
   xmlns:svg="http://www.w3.org/2000/svg"
   xmlns="http://www.w3.org/2000/svg"
   xmlns:sodipodi="http://sodipodi.sourceforge.net/DTD/sodipodi-0.dtd"
   xmlns:inkscape="http://www.inkscape.org/namespaces/inkscape"
   viewBox="0 0 16 16"
   id="svg2"
   version="1.1"
   inkscape:version="0.91 r13725"
   sodipodi:docname="indicator-keyboard-Sr.svg">
  <metadata
     id="metadata13">
    <rdf:RDF>
      <cc:Work
         rdf:about="">
        <dc:format>image/svg+xml</dc:format>
        <dc:type
           rdf:resource="http://purl.org/dc/dcmitype/StillImage" />
      </cc:Work>
    </rdf:RDF>
  </metadata>
  <defs
     id="defs11" />
  <sodipodi:namedview
     pagecolor="#ffffff"
     bordercolor="#666666"
     borderopacity="1"
     objecttolerance="10"
     gridtolerance="10"
     guidetolerance="10"
     inkscape:pageopacity="0"
     inkscape:pageshadow="2"
     inkscape:window-width="640"
     inkscape:window-height="480"
     id="namedview9"
     showgrid="false"
     inkscape:zoom="14.75"
     inkscape:cx="8"
     inkscape:cy="8"
     inkscape:window-x="65"
     inkscape:window-y="24"
     inkscape:window-maximized="0"
     inkscape:current-layer="svg2" />
  <path
     style="fill:#ececec;fill-opacity:1"
     d="M 1.5996094 0 C 0.71320937 2.9605947e-16 0 0.71320937 0 1.5996094 L 0 14.400391 C 2.9605947e-16 15.286791 0.71320937 16 1.5996094 16 L 14.400391 16 C 15.286791 16 16 15.286791 16 14.400391 L 16 1.5996094 C 16 0.71320937 15.286791 0 14.400391 0 L 1.5996094 0 z M 6.3730469 4.7460938 C 6.5410469 4.7460938 6.7051875 4.7592031 6.8671875 4.7832031 C 7.0291875 4.8072031 7.1803594 4.8388594 7.3183594 4.8808594 C 7.4623594 4.9168594 7.5910781 4.9598125 7.7050781 5.0078125 C 7.8250781 5.0558125 7.9239531 5.1061563 8.0019531 5.1601562 L 7.7851562 5.6738281 C 7.6111563 5.5538281 7.3984844 5.4567656 7.1464844 5.3847656 C 6.9004844 5.3127656 6.6337031 5.2773438 6.3457031 5.2773438 C 6.1477031 5.2773438 5.964875 5.2978437 5.796875 5.3398438 C 5.634875 5.3758438 5.4930469 5.4392969 5.3730469 5.5292969 C 5.2530469 5.6132969 5.1579375 5.7215156 5.0859375 5.8535156 C 5.0199375 5.9855156 4.9863281 6.1440781 4.9863281 6.3300781 C 4.9863281 6.5220781 5.0237031 6.6844063 5.0957031 6.8164062 C 5.1677031 6.9484063 5.2665781 7.0622031 5.3925781 7.1582031 C 5.5245781 7.2542031 5.6775625 7.3419219 5.8515625 7.4199219 C 6.0255625 7.4979219 6.2139688 7.5781094 6.4179688 7.6621094 C 6.6639688 7.7641094 6.8953281 7.86675 7.1113281 7.96875 C 7.3333281 8.07075 7.5255 8.190125 7.6875 8.328125 C 7.8495 8.466125 7.9782187 8.6340313 8.0742188 8.8320312 C 8.1702188 9.0300313 8.21875 9.2725469 8.21875 9.5605469 C 8.21875 10.124547 8.0190469 10.548078 7.6230469 10.830078 C 7.2330469 11.112078 6.70325 11.253906 6.03125 11.253906 C 5.79125 11.253906 5.5710469 11.238984 5.3730469 11.208984 C 5.1750469 11.178984 4.99975 11.141609 4.84375 11.099609 C 4.68775 11.051609 4.5552656 11.005031 4.4472656 10.957031 C 4.3392656 10.909031 4.2553125 10.866078 4.1953125 10.830078 L 4.3925781 10.298828 C 4.4525781 10.334828 4.5347188 10.377781 4.6367188 10.425781 C 4.7387188 10.473781 4.8580937 10.522312 4.9960938 10.570312 C 5.1340937 10.612312 5.2908438 10.647734 5.4648438 10.677734 C 5.6388438 10.707734 5.8290625 10.722656 6.0390625 10.722656 C 6.5250625 10.722656 6.9038281 10.634938 7.1738281 10.460938 C 7.4438281 10.280937 7.578125 9.9936564 7.578125 9.5976562 C 7.578125 9.3696562 7.5333594 9.18125 7.4433594 9.03125 C 7.3593594 8.87525 7.2455625 8.7445781 7.1015625 8.6425781 C 6.9575625 8.5345781 6.7934219 8.4450469 6.6074219 8.3730469 C 6.4214219 8.2950469 6.2254844 8.2148594 6.0214844 8.1308594 C 5.7634844 8.0288594 5.532125 7.9244062 5.328125 7.8164062 C 5.124125 7.7084063 4.9506406 7.5870781 4.8066406 7.4550781 C 4.6626406 7.3170781 4.5526094 7.1622813 4.4746094 6.9882812 C 4.4026094 6.8142812 4.3652344 6.609 4.3652344 6.375 C 4.3652344 5.841 4.5424844 5.4361563 4.8964844 5.1601562 C 5.2504844 4.8841563 5.7430469 4.7460938 6.3730469 4.7460938 z M 10.904297 6.375 C 11.096297 6.375 11.277313 6.3899219 11.445312 6.4199219 C 11.619312 6.4499219 11.738687 6.4797656 11.804688 6.5097656 L 11.6875 7.0136719 C 11.6395 6.9896719 11.540625 6.9673594 11.390625 6.9433594 C 11.246625 6.9133594 11.054453 6.8984375 10.814453 6.8984375 C 10.562453 6.8984375 10.359125 6.9151719 10.203125 6.9511719 C 10.053125 6.9871719 9.95425 7.0170156 9.90625 7.0410156 L 9.90625 11.119141 L 9.3203125 11.119141 L 9.3203125 6.6816406 C 9.4703125 6.6156406 9.6774062 6.550375 9.9414062 6.484375 C 10.205406 6.412375 10.526297 6.375 10.904297 6.375 z "
     id="path4" />
</svg>

<svg xmlns="http://www.w3.org/2000/svg" viewBox="0 0 16 16">
 <path d="m 1.6 0 c -0.886 0 -1.6 0.713 -1.6 1.6 l 0 12.801 c 0 0.886 0.713 1.6 1.6 1.6 l 12.801 0 c 0.886 0 1.6 -0.713 1.6 -1.6 l 0 -12.801 c 0 -0.886 -0.713 -1.6 -1.6 -1.6 l -12.801 0 z m 4.773 4.746 c 0.168 0 0.332 0.013 0.494 0.037 c 0.162 0.024 0.313 0.056 0.451 0.098 c 0.144 0.036 0.273 0.079 0.387 0.127 c 0.12 0.048 0.219 0.098 0.297 0.152 l -0.217 0.514 c -0.174 -0.12 -0.387 -0.217 -0.639 -0.289 c -0.246 -0.072 -0.513 -0.107 -0.801 -0.107 c -0.198 0 -0.381 0.02 -0.549 0.063 c -0.162 0.036 -0.304 0.099 -0.424 0.189 c -0.12 0.084 -0.215 0.192 -0.287 0.324 c -0.066 0.132 -0.1 0.291 -0.1 0.477 c 0 0.192 0.037 0.354 0.109 0.486 c 0.072 0.132 0.171 0.246 0.297 0.342 c 0.132 0.096 0.285 0.184 0.459 0.262 c 0.174 0.078 0.362 0.158 0.566 0.242 c 0.246 0.102 0.477 0.205 0.693 0.307 c 0.222 0.102 0.414 0.221 0.576 0.359 c 0.162 0.138 0.291 0.306 0.387 0.504 c 0.096 0.198 0.145 0.441 0.145 0.729 c 0 0.564 -0.2 0.988 -0.596 1.27 c -0.39 0.282 -0.92 0.424 -1.592 0.424 c -0.24 0 -0.46 -0.015 -0.658 -0.045 c -0.198 -0.03 -0.373 -0.067 -0.529 -0.109 c -0.156 -0.048 -0.288 -0.095 -0.396 -0.143 c -0.108 -0.048 -0.192 -0.091 -0.252 -0.127 l 0.197 -0.531 c 0.06 0.036 0.142 0.079 0.244 0.127 c 0.102 0.048 0.221 0.097 0.359 0.145 c 0.138 0.042 0.295 0.077 0.469 0.107 c 0.174 0.03 0.364 0.045 0.574 0.045 c 0.486 0 0.865 -0.088 1.135 -0.262 c 0.27 -0.18 0.404 -0.467 0.404 -0.863 c 0 -0.228 -0.045 -0.416 -0.135 -0.566 c -0.084 -0.156 -0.198 -0.287 -0.342 -0.389 c -0.144 -0.108 -0.308 -0.198 -0.494 -0.27 c -0.186 -0.078 -0.382 -0.158 -0.586 -0.242 c -0.258 -0.102 -0.489 -0.206 -0.693 -0.314 c -0.204 -0.108 -0.377 -0.229 -0.521 -0.361 c -0.144 -0.138 -0.254 -0.293 -0.332 -0.467 c -0.072 -0.174 -0.109 -0.379 -0.109 -0.613 c 0 -0.534 0.177 -0.939 0.531 -1.215 c 0.354 -0.276 0.847 -0.414 1.477 -0.414 z m 4.531 1.629 c 0.192 0 0.373 0.015 0.541 0.045 c 0.174 0.03 0.293 0.06 0.359 0.09 l -0.117 0.504 c -0.048 -0.024 -0.147 -0.046 -0.297 -0.07 c -0.144 -0.03 -0.336 -0.045 -0.576 -0.045 c -0.252 0 -0.455 0.017 -0.611 0.053 c -0.15 0.036 -0.249 0.066 -0.297 0.09 l 0 4.078 l -0.586 0 l 0 -4.438 c 0.15 -0.066 0.357 -0.131 0.621 -0.197 c 0.264 -0.072 0.585 -0.109 0.963 -0.109 z" style="fill:#ececec;fill-opacity:1"/>
</svg>
